X:1
T:Title
%%score { ( 1 3 ) | ( 2 4 ) }
L:1/8
M:3/4
K:G
V:1 treble nm="Grand Piano"
V:3 treble 
V:2 bass 
V:4 bass 
V:1
 z2 z2[Q:1/4=94] [B,D]>[CE] | [B,D]3 [DB] [DA][DG] | [DF] [CE]3 [EG]>[CE] | [B,D]3 [DG] [^CA][CB] | %4
[M:2/4] A4 |[M:1/4] [B,D]>[CE] |[M:3/4] [B,D]3 [DB] [DA][DG] | [DF] [CE]3 [EG]>[^DA] | BG D2 A2 | %9
[M:2/4] [B,G]4 |[M:1/4] [=FG]>[FG] |[M:3/4] [Ec]3 [Ec] [EG][^DA] | [DB]4 d>d | d3 B [GA][GB] | %14
[M:2/4] [FA]4 |[M:1/4] B>c |[M:3/4] d3 [DB] [DA][DG] | [DF] [CE]3 [EG]>[^DA] | BG D2 A2 | %19
[M:2/4] [B,G]4 |] %20
V:2
 z2 z2 [G,,G,]>[G,,G,] | [G,,G,]3 [G,,G,] [A,,F,][B,,G,] | [C,G,] [C,G,]3 [C,C]>[C,G,] | %3
 [G,,G,]3 [B,,G,] [A,,G,][A,,G,] |[M:2/4] D2 z2 |[M:1/4] [G,,G,]>[G,,G,] | %6
[M:3/4] [G,,G,]3 [G,,G,] [A,,F,][B,,G,] | [C,G,] [C,G,]3 [C,C]>[C,G,] | %8
 [D,G,D][D,B,D] [D,G,B,]2 [D,F,C]2 |[M:2/4] [G,,G,]4 |[M:1/4] [G,B,]>[G,B,] | %11
[M:3/4] [C,G,]3 [C,G,] [C,C][C,G,] | [G,,G,]4[K:treble] [G,B,G]>[G,B,G] | %13
 [G,B,G]3 [G,DG][K:bass] [E,^C][E,C] |[M:2/4] [D,D]4 |[M:1/4][K:treble] [G,DG]>[G,A,G] | %16
[M:3/4] [G,B,G]3[K:bass] [G,,G,] [A,,F,][B,,G,] | [C,G,] [C,G,]3 [C,C]>[C,G,] | %18
 [D,G,D][D,B,D] [D,G,B,]2 [D,F,C]2 |[M:2/4] [G,,G,]4 |] %20
V:3
 x6 | x6 | x6 | x6 |[M:2/4] z2 C2 |[M:1/4] x2 |[M:3/4] x6 | x6 | x6 |[M:2/4] x4 |[M:1/4] x2 | %11
[M:3/4] x6 | x6 | x6 |[M:2/4] x4 |[M:1/4] x2 |[M:3/4] x6 | x6 | x6 |[M:2/4] x4 |] %20
V:4
 x6 | x6 | x6 | x6 |[M:2/4] [D,F,]4 |[M:1/4] x2 |[M:3/4] x6 | x6 | x6 |[M:2/4] x4 |[M:1/4] x2 | %11
[M:3/4] x6 | x4[K:treble] x2 | x4[K:bass] x2 |[M:2/4] x4 |[M:1/4][K:treble] x2 | %16
[M:3/4] x3[K:bass] x3 | x6 | x6 |[M:2/4] x4 |] %20

